X:266
T: DU! DU! LIEGST MIR IM HERZEN
N: Z0264
O: Europa, Mitteleuropa, Deutschland, Schwaben
R: lyrisches Lied, Romanze
M: 3/8
L: 1/8
K: G
B2z | B2z | BAB | d^c=c |
A2z | A2z | ABc | B2z |
B2z | B2z | BAB | d^c=c |
AAA | BBA | G2z |
d2z | d^c=c | B2z |
AAA | cBA | G2z

@@@ Tune index: 10024
